X:1
T:Flat River Raftsman, The
A:George Edwards
B:Folksongs of the Catskills
C:Norman Cazden, Herbert Haufrecht & Norman Studer
L:1/8
M:3/4
N:Edited and Annotated, With a Study of Tune Formation and Relationships,
N:Folk Songs of the Catskills
N:by Norman Cazden, Herbert Haufrecht and Norman Studer
O:Catkills Mountain Region
Q:1/4=180
R:Waltz
S:Catskill Mountains Region
Z:Jackie Fritts
K:C Major
C3/C/|E2C2(EG)|G2E2C2|F2E2D2|C4C2|
w:I'a a heart-bro-ken rafts-man, -from Green-ville I came. All
E2C2E2|F2E2F2|G2B3A|G4GG|
w:mirth is de-part-ed, all joys I'll re-frain, From the
G2A2B2|c2G2G2|c2G2E2|D4F2|
w:small darts of Cu-pid that give me such grief My
F2G2c2|c2G2E2|F2E2D2|C4|]
w:heart breaks a-sun-der, I'll ne'er get re-lief